libs/ui/packages/crypto-icons/src/svg/PFIL.svg

<svg width="100" height="100" viewBox="0 0 100 100" fill="blue">
<path fill-rule="evenodd" clip-rule="evenodd" d="M54.0056 47.572L54.5 44.5L54.7386 43.233L66.6931 45.4525C67.8877 45.6743 69.036 44.8856 69.2577 43.691C69.4795 42.4964 68.6909 41.3482 67.4963 41.1264L55.738 38.9434C56.3576 36.8962 56.921 34.8523 57.4799 32.8246C58.2788 29.9265 59.0686 27.0614 60 24.2672C60.75 22.5172 62 20.7672 63.25 19.5172C65 17.7672 67.25 18.0172 68.75 20.0172C69.125 20.3922 69.4375 20.7672 69.75 21.1422C70.0625 21.5172 70.375 21.8922 70.75 22.2672C71.75 23.2672 73 23.5172 74 22.7672C74.75 22.0172 74.75 20.7672 74.75 19.7672C74.75 19.2672 74.25 18.7672 74 18.5172C72.5 16.7672 70.25 16.0172 68 16.0172C62.75 15.7672 59.25 18.2672 56.25 22.2672C53.25 26.2672 52 30.7672 50.75 35.2672C50.4587 35.9954 50.2523 36.7236 50.0318 37.5013C49.9978 37.6212 49.9635 37.7423 49.9285 37.8648L44.5726 36.8704C43.378 36.6486 42.2298 37.4373 42.008 38.6319C41.7862 39.8265 42.5749 40.9747 43.7695 41.1965L48.8252 42.1351L48.5 43.5172L47.8428 46.4278L34.5736 43.9643C33.379 43.7425 32.2307 44.5311 32.009 45.7257C31.7872 46.9203 32.5758 48.0685 33.7704 48.2903L46.8729 50.7229L46.75 51.2672L45.757 54.991L32.9666 52.6164C31.772 52.3946 30.6237 53.1832 30.4019 54.3778C30.1802 55.5724 30.9688 56.7206 32.1634 56.9424L45.0307 59.3314C44.1673 63.1656 43.2186 66.9339 42.2523 70.7719C42.0023 71.7649 41.7512 72.7625 41.5 73.7672C40.75 76.5172 39.5 79.2672 37.25 81.2672C35.25 82.7672 33.25 82.5172 31.75 80.5172C31.25 79.5172 30.5 78.5172 29.75 77.7672C29 77.5172 27.75 77.2672 27.25 77.5172C26.5 78.0172 26 79.2672 26 80.2672C26 81.0172 26.75 82.0172 27.5 82.5172C29.75 84.2672 32.75 84.5172 35.5 84.0172C40.25 83.2672 43.75 80.2672 45.75 76.0172C47.25 72.7672 48.5 69.2672 49.75 65.7672C50.4358 64.1213 50.8958 62.325 51.3365 60.5021L55.3095 61.2397C56.5041 61.4615 57.6523 60.6729 57.8741 59.4783C58.0959 58.2837 57.3073 57.1354 56.1127 56.9136L52.4351 56.2309C52.4565 56.1595 52.4781 56.0883 52.5 56.0172L53.25 52.2672L53.3063 51.9173L65.0877 54.1047C66.2823 54.3265 67.4306 53.5378 67.6523 52.3432C67.8741 51.1486 67.0855 50.0004 65.8909 49.7786L54.0056 47.572ZM36.9664 35.4017C35.7719 35.1799 34.6237 35.9686 34.4019 37.1631C34.1801 38.3577 34.9687 39.506 36.1633 39.7278C37.3578 39.9495 38.506 39.1609 38.7278 37.9663C38.9496 36.7717 38.161 35.6235 36.9664 35.4017ZM63.1633 62.7278C64.3578 62.9495 65.506 62.1609 65.7278 60.9663C65.9496 59.7717 65.161 58.6235 63.9664 58.4017C62.7719 58.1799 61.6237 58.9686 61.4019 60.1631C61.1801 61.3577 61.9687 62.506 63.1633 62.7278Z"/>
</svg>

<svg width="100" height="100" viewBox="0 0 100 100" fill="#00f"><path fill-rule="evenodd" d="M54.006 47.572 54.5 44.5l.239-1.267 11.954 2.22a2.2 2.2 0 0 0 .803-4.327l-11.758-2.183a254 254 0 0 0 1.742-6.118c.799-2.899 1.589-5.764 2.52-8.558.75-1.75 2-3.5 3.25-4.75 1.75-1.75 4-1.5 5.5.5.375.375.688.75 1 1.125s.625.75 1 1.125c1 1 2.25 1.25 3.25.5.75-.75.75-2 .75-3 0-.5-.5-1-.75-1.25-1.5-1.75-3.75-2.5-6-2.5-5.25-.25-8.75 2.25-11.75 6.25s-4.25 8.5-5.5 13c-.291.728-.498 1.457-.718 2.234l-.103.364-5.356-.995a2.2 2.2 0 0 0-.803 4.327l5.055.938-.325 1.382-.657 2.91-13.27-2.463a2.2 2.2 0 1 0-.803 4.326l13.103 2.433-.123.544-.993 3.724-12.79-2.375a2.2 2.2 0 1 0-.804 4.326l12.868 2.39c-.864 3.834-1.812 7.602-2.779 11.44l-.752 2.995c-.75 2.75-2 5.5-4.25 7.5-2 1.5-4 1.25-5.5-.75-.5-1-1.25-2-2-2.75-.75-.25-2-.5-2.5-.25-.75.5-1.25 1.75-1.25 2.75 0 .75.75 1.75 1.5 2.25 2.25 1.75 5.25 2 8 1.5 4.75-.75 8.25-3.75 10.25-8 1.5-3.25 2.75-6.75 4-10.25.686-1.646 1.146-3.442 1.587-5.265l3.972.738a2.2 2.2 0 1 0 .804-4.326l-3.678-.683.065-.214.75-3.75.056-.35 11.782 2.188a2.2 2.2 0 0 0 .803-4.326zm-17.04-12.17a2.2 2.2 0 1 0-.803 4.326 2.2 2.2 0 0 0 .803-4.326m26.197 27.326a2.2 2.2 0 1 0 .803-4.326 2.2 2.2 0 0 0-.803 4.326" clip-rule="evenodd"/></svg>
